X: 28
T: Sanlengzi biandan jiandizi tong
%%abc-version 2.0
%%abcx-abcm2ps-target-version 5.9.1 (29 Sep 2008)
%%abc-creator hum2abc beta
%%abcx-conversion-date 2013/10/02 07:52:29
%%abc-edited-by Helmut Schaffrath
%%humdrum-veritas 408623242
%%humdrum-veritas-data 3197591551
%%continueall 1
%%barnumbers 0
L: 1/16
M: 2/4
K: D
B2A4F d [I:setbarnb 1]| 
F E D B, A,2 A, A, | 
D2> F2 E2 D B, | 
A8 | 
B2A4B d | 
F E D B, A,2 A, A, | 
D2> F2 E2 D B, | 
A,8 |]  



